build/img/icon-vk.svg

<svg width="24" height="24" viewBox="0 0 24 24" fill="none" xmlns="http://www.w3.org/2000/svg">
<path fill-rule="evenodd" clip-rule="evenodd" d="M21.5294 6.82608C21.6776 6.36008 21.5294 6.02118 20.8727 6.02118H18.691C18.1403 6.02118 17.8861 6.31772 17.7379 6.63545C17.7379 6.63545 16.6153 9.34668 15.0478 11.1047C14.5395 11.6131 14.3065 11.7826 14.0311 11.7826C13.8828 11.7826 13.6922 11.6131 13.6922 11.1471V6.8049C13.6922 6.25418 13.5227 6 13.0568 6H9.62535C9.28644 6 9.07463 6.25418 9.07463 6.50836C9.07463 7.03789 9.85834 7.16498 9.94307 8.64769V11.8673C9.94307 12.5663 9.81598 12.6934 9.54062 12.6934C8.79927 12.6934 6.99884 9.96094 5.91858 6.84726C5.70677 6.233 5.49495 6 4.94423 6H2.74135C2.10591 6 2 6.29654 2 6.61426C2 7.18616 2.74135 10.0669 5.45259 13.8795C7.25302 16.4849 9.81598 17.8828 12.1248 17.8828C13.5227 17.8828 13.6922 17.5651 13.6922 17.0356V15.0657C13.6922 14.4302 13.8193 14.3243 14.2641 14.3243C14.5818 14.3243 15.1537 14.4938 16.4458 15.7435C17.9285 17.2262 18.1827 17.904 19.0088 17.904H21.1905C21.8259 17.904 22.1224 17.5863 21.953 16.972C21.7624 16.3578 21.0422 15.4681 20.1102 14.4091C19.6018 13.816 18.8393 13.1594 18.6063 12.8416C18.2886 12.418 18.3733 12.2485 18.6063 11.8673C18.5851 11.8673 21.254 8.09697 21.5294 6.82608Z" fill="#2787F5"/>
</svg>

<svg width="24" height="24" fill="none" xmlns="http://www.w3.org/2000/svg"><path fill-rule="evenodd" clip-rule="evenodd" d="M21.53 6.826c.148-.466 0-.805-.657-.805H18.69c-.55 0-.805.297-.953.614 0 0-1.123 2.712-2.69 4.47-.508.508-.742.678-1.017.678-.148 0-.339-.17-.339-.636V6.805c0-.55-.17-.805-.635-.805H9.625c-.339 0-.55.254-.55.508 0 .53.783.657.868 2.14v3.22c0 .698-.127.825-.402.825-.742 0-2.542-2.732-3.622-5.846C5.707 6.233 5.495 6 4.944 6H2.741C2.106 6 2 6.297 2 6.614c0 .572.741 3.453 3.453 7.266 1.8 2.605 4.363 4.003 6.672 4.003 1.398 0 1.567-.318 1.567-.847v-1.97c0-.636.127-.742.572-.742.318 0 .89.17 2.182 1.42 1.482 1.482 1.737 2.16 2.563 2.16h2.181c.636 0 .932-.318.763-.932-.19-.614-.91-1.504-1.843-2.563-.508-.593-1.27-1.25-1.504-1.567-.317-.424-.233-.594 0-.975-.02 0 2.648-3.77 2.923-5.04z" fill="#2787F5"/></svg>
